packages/ffe-icons/icons/open/300/md/format_h3.svg

<svg xmlns="http://www.w3.org/2000/svg" height="24" viewBox="0 -960 960 960" width="24"><path d="M169.987-290.001q-12.755 0-21.37-8.625-8.616-8.624-8.616-21.374v-320q0-12.75 8.629-21.375 8.629-8.624 21.384-8.624 12.756 0 21.371 8.624Q200-652.75 200-640v130.001h180.001V-640q0-12.75 8.629-21.375 8.629-8.624 21.384-8.624 12.756 0 21.371 8.624Q440-652.75 440-640v320q0 12.75-8.629 21.374-8.628 8.625-21.384 8.625-12.755 0-21.37-8.625-8.616-8.624-8.616-21.374v-130.001H200V-320q0 12.75-8.629 21.374-8.628 8.625-21.384 8.625Zm380.012 0q-12.749 0-21.374-8.628Q520-307.258 520-320.013q0-12.756 8.625-21.371 8.625-8.615 21.374-8.615h197.692q5.385 0 8.847-3.462 3.462-3.462 3.462-8.847v-87.693H629.999q-12.749 0-21.374-8.628Q600-467.258 600-480.013q0-12.756 8.625-21.371 8.625-8.615 21.374-8.615H760v-87.693q0-5.385-3.462-8.847-3.462-3.462-8.847-3.462H549.999q-12.749 0-21.374-8.628Q520-627.258 520-640.013q0-12.756 8.625-21.371 8.625-8.615 21.374-8.615h197.692q29.827 0 51.067 21.24 21.241 21.24 21.241 51.067v235.384q0 29.827-21.241 51.067-21.24 21.24-51.067 21.24H549.999Z"/></svg>

<svg xmlns="http://www.w3.org/2000/svg" height="24" viewBox="0 -960 960 960" width="24"><path d="M169.99-290q-12.76 0-21.37-8.63Q140-307.25 140-320v-320q0-12.75 8.63-21.37 8.63-8.63 21.38-8.63 12.76 0 21.37 8.63Q200-652.75 200-640v130h180v-130q0-12.75 8.63-21.37 8.63-8.63 21.38-8.63 12.76 0 21.37 8.63Q440-652.75 440-640v320q0 12.75-8.63 21.37-8.63 8.63-21.38 8.63-12.76 0-21.37-8.63Q380-307.25 380-320v-130H200v130q0 12.75-8.63 21.37-8.63 8.63-21.38 8.63ZM550-290q-12.75 0-21.38-8.63-8.62-8.63-8.62-21.38 0-12.76 8.62-21.37Q537.25-350 550-350h197.69q5.39 0 8.85-3.46t3.46-8.85V-450H630q-12.75 0-21.38-8.63-8.62-8.63-8.62-21.38 0-12.76 8.62-21.37Q617.25-510 630-510h130v-87.69q0-5.39-3.46-8.85t-8.85-3.46H550q-12.75 0-21.38-8.63-8.62-8.63-8.62-21.38 0-12.76 8.62-21.37Q537.25-670 550-670h197.69q29.83 0 51.07 21.24Q820-627.52 820-597.69v235.38q0 29.83-21.24 51.07Q777.52-290 747.69-290H550Z"/></svg>
